%
(Header)
(Generated by gcodetools from Inkscape.)
(Using default header. To add your own header create file "header" in the output dir.)
M3
(Header end.)
G21 (All units in mm)

G00 Z5.0
G00 X0.0 Y0.0
G00 X25.0 Y-43.3
G00 X75.0 Y-43.3
G00 X100.0 Y0.0
G00 X75.0 Y43.3
G00 X25.0 Y43.3
G00 X0.0 Y0.0
G00 Z0.0

(Footer)
M5
G00 X0.0000 Y0.0000
M2
(Using default footer. To add your own footer create file "footer" in the output dir.)
(end)
%