%
(Header)
(Generated by gcodetools from Inkscape.)
(Using default header. To add your own header create file "header" in the output dir.)
M3
(Header end.)
G21 (All units in mm)

(Start cutting path id: path4827)
(Change tool to Cone cutter)

G00 Z5.000000
G00 X85.340320 Y22.949391

G01 Z-1.000000 F100.0(Penetrate)
G02 X82.451429 Y10.393260 Z-1.000000 I-28.731155 J0.000010 F400.000000
G02 X77.835955 Y7.504376 Z-1.000000 I-4.615471 J2.242548
G02 X73.220483 Y10.393262 Z-1.000000 I0.000001 J5.131434
G02 X70.331593 Y22.949391 Z-1.000000 I25.842269 J12.556139
G02 X73.220481 Y35.505528 Z-1.000000 I28.731173 J-0.000000
G02 X77.835955 Y38.394417 Z-1.000000 I4.615476 J-2.242547
G02 X80.361909 Y37.463849 Z-1.000000 I0.000002 J-3.893531
G02 X83.142342 Y33.870675 Z-1.000000 I-7.195292 J-8.440138
G02 X84.717221 Y29.203570 Z-1.000000 I-17.511307 J-8.508321
G02 X85.340320 Y22.949391 Z-1.000000 I-31.075686 J-6.254179
G01 X85.340320 Y22.949391 Z-1.000000
G00 Z5.000000

(End cutting path id: path4827)


(Start cutting path id: path4846)
(Change tool to Cone cutter)

G00 Z5.000000
G00 X75.214918 Y82.428585

G01 Z-1.000000 F100.0(Penetrate)
G02 X74.920898 Y82.360673 Z-1.000000 I-1.232940 J4.667489 F400.000000
G02 X74.575510 Y82.301805 Z-1.000000 I-1.265768 J6.383841
G02 X74.232968 Y82.263096 Z-1.000000 I-0.783072 J5.394545
G02 X73.963660 Y82.252196 Z-1.000000 I-0.269308 J3.321493
G02 X73.085041 Y82.403062 Z-1.000000 I-0.000000 J2.633916
G02 X72.530499 Y82.759316 Z-1.000000 I0.480289 J1.357337
G02 X72.195734 Y83.329466 Z-1.000000 I1.008186 J0.975312
G02 X72.039918 Y84.385398 Z-1.000000 I3.499997 J1.055932
G01 X72.039918 Y87.659619 Z-1.000000
G01 X71.339874 Y87.659619 Z-1.000000
G01 X71.339874 Y88.530537 Z-1.000000
G01 X72.039918 Y88.530537 Z-1.000000
G01 X72.039918 Y90.299941 Z-1.000000
G01 X73.076204 Y90.299941 Z-1.000000
G01 X73.076204 Y88.530537 Z-1.000000
G01 X75.214918 Y88.530537 Z-1.000000
G01 X75.214918 Y87.659619 Z-1.000000
G01 X73.076204 Y87.659619 Z-1.000000
G01 X73.076204 Y84.853933 Z-1.000000
G03 X73.083226 Y84.369143 Z-1.000000 I16.737584 J0.000000
G03 X73.098246 Y84.093256 Z-1.000000 I5.433283 J0.157436
G03 X73.148137 Y83.831631 Z-1.000000 I1.242728 J0.101415
G03 X73.252587 Y83.586137 Z-1.000000 I1.196890 J0.364273
G03 X73.399450 Y83.392272 Z-1.000000 I0.735006 J0.404247
G03 X73.583315 Y83.260921 Z-1.000000 I0.507676 J0.516280
G03 X73.805423 Y83.194184 Z-1.000000 I0.346963 J0.751759
G03 X74.233750 Y83.161703 Z-1.000000 I0.428326 J2.807941
G03 X74.485143 Y83.178646 Z-1.000000 I0.000000 J1.873431
G03 X74.762916 Y83.233359 Z-1.000000 I-0.317388 J2.343846
G03 X75.036841 Y83.315431 Z-1.000000 I-2.130740 J7.609696
G03 X75.159791 Y83.360139 Z-1.000000 I-0.503327 J1.575628
G01 X75.214912 Y83.360139 Z-1.000000
G01 X75.214912 Y82.428585 Z-1.000000
G01 X75.214918 Y82.428585 Z-1.000000
G00 Z5.000000

(End cutting path id: path4846)


(Start cutting path id: path4844)
(Change tool to Cone cutter)

G00 Z5.000000
G00 X70.667392 Y82.373464

G01 Z-1.000000 F100.0(Penetrate)
G01 X69.361011 Y82.373464 Z-1.000000 F400.000000
G01 X67.613660 Y84.738176 Z-1.000000
G01 X65.855283 Y82.373464 Z-1.000000
G01 X64.648123 Y82.373464 Z-1.000000
G01 X67.051420 Y85.443732 Z-1.000000
G01 X64.670170 Y88.530537 Z-1.000000
G01 X65.976551 Y88.530537 Z-1.000000
G01 X67.712878 Y86.204411 Z-1.000000
G01 X69.454720 Y88.530537 Z-1.000000
G01 X70.667392 Y88.530537 Z-1.000000
G01 X68.247557 Y85.498855 Z-1.000000
G01 X70.667392 Y82.373464 Z-1.000000
G01 X70.667392 Y82.373464 Z-1.000000
G00 Z5.000000

(End cutting path id: path4844)


(Start cutting path id: path4842)
(Change tool to Cone cutter)

G00 Z5.000000
G00 X63.766178 Y85.344514

G01 Z-1.000000 F100.0(Penetrate)
G01 X59.229676 Y85.344514 Z-1.000000 F400.000000
G03 X59.277418 Y84.786011 Z-1.000000 I3.290648 J-0.000000
G03 X59.400553 Y84.352328 Z-1.000000 I2.097682 J0.361269
G03 X59.610530 Y83.960767 Z-1.000000 I1.963715 J0.800975
G03 X59.869084 Y83.663308 Z-1.000000 I1.379931 J0.938348
G03 X60.177275 Y83.435040 Z-1.000000 I1.207618 J1.308259
G03 X60.547081 Y83.266433 Z-1.000000 I1.010097 J1.725586
G03 X60.949695 Y83.169505 Z-1.000000 I0.766737 J2.300211
G03 X61.417999 Y83.134141 Z-1.000000 I0.468304 J3.082995
G03 X62.035055 Y83.194195 Z-1.000000 I0.000000 J3.200173
G03 X62.680283 Y83.382189 Z-1.000000 I-0.725093 J3.689904
G03 X63.297493 Y83.671581 Z-1.000000 I-2.064079 J5.205101
G03 X63.589789 Y83.878282 Z-1.000000 I-0.739496 J1.355746
G01 X63.644910 Y83.878282 Z-1.000000
G01 X63.644910 Y82.748289 Z-1.000000
G02 X63.115136 Y82.545530 Z-1.000000 I-3.336493 J7.924176
G02 X62.575553 Y82.378976 Z-1.000000 I-2.781580 J8.054146
G02 X62.024693 Y82.268649 Z-1.000000 I-1.078515 J3.954597
G02 X61.429025 Y82.230149 Z-1.000000 I-0.595667 J4.588876
G02 X59.993730 Y82.471188 Z-1.000000 I-0.000000 J4.393840
G02 X59.036749 Y83.056970 Z-1.000000 I0.853080 J2.468254
G02 X58.427673 Y83.995599 Z-1.000000 I1.735842 J1.793316
G02 X58.176855 Y85.416173 Z-1.000000 I3.897482 J1.420574
G02 X58.412948 Y86.834018 Z-1.000000 I4.375447 J-0.000000
G02 X58.998164 Y87.813958 Z-1.000000 I2.610126 J-0.894042
G02 X59.930882 Y88.458022 Z-1.000000 I1.931087 J-1.799151
G02 X61.169954 Y88.701414 Z-1.000000 I1.239072 J-3.032267
G02 X62.323231 Y88.490037 Z-1.000000 I-0.000000 J-3.251840
G02 X63.088182 Y87.973812 Z-1.000000 I-0.714449 J-1.883551
G02 X63.564789 Y87.166920 Z-1.000000 I-1.595214 J-1.486451
G02 X63.766178 Y85.906754 Z-1.000000 I-3.841960 J-1.260166
G01 X63.766178 Y85.344514 Z-1.000000
G01 X63.766178 Y85.344514 Z-1.000000
G00 Z5.000000

(End cutting path id: path4842)


(Start cutting path id: path4842)
(Change tool to Cone cutter)

G00 Z5.000000
G00 X62.757454 Y86.138264

G01 Z-1.000000 F100.0(Penetrate)
G03 X62.632099 Y86.907093 Z-1.000000 I-2.524843 J-0.017032 F400.000000
G03 X62.344041 Y87.400548 Z-1.000000 I-1.290968 J-0.422807
G03 X61.881610 Y87.712087 Z-1.000000 I-0.855711 J-0.771197
G03 X61.114830 Y87.847032 Z-1.000000 I-0.766779 J-2.111012
G03 X60.339453 Y87.708435 Z-1.000000 I-0.000000 J-2.238215
G03 X59.786402 Y87.356451 Z-1.000000 I0.537097 J-1.454387
G03 X59.408902 Y86.812905 Z-1.000000 I1.318753 J-1.318753
G03 X59.229676 Y86.138264 Z-1.000000 I1.887258 J-0.862499
G01 X62.757454 Y86.138264 Z-1.000000
G01 X62.757454 Y86.138264 Z-1.000000
G00 Z5.000000

(End cutting path id: path4842)


(Start cutting path id: path4840)
(Change tool to Cone cutter)

G00 Z5.000000
G00 X57.581541 Y89.610921

G01 Z-1.000000 F100.0(Penetrate)
G01 X54.649077 Y89.610921 Z-1.000000 F400.000000
G01 X54.649077 Y82.373464 Z-1.000000
G01 X53.557670 Y82.373464 Z-1.000000
G01 X53.557670 Y89.610921 Z-1.000000
G01 X50.625206 Y89.610921 Z-1.000000
G01 X50.625206 Y90.581060 Z-1.000000
G01 X57.581541 Y90.581060 Z-1.000000
G01 X57.581541 Y89.610921 Z-1.000000
G01 X57.581541 Y89.610921 Z-1.000000
G00 Z5.000000

(End cutting path id: path4840)


(Start cutting path id: path4838)
(Change tool to Cone cutter)

G00 Z5.000000
G00 X45.680802 Y82.373464

G01 Z-1.000000 F100.0(Penetrate)
G01 X44.644519 Y82.373464 Z-1.000000 F400.000000
G01 X44.644519 Y85.879192 Z-1.000000
G03 X44.631296 Y86.302745 Z-1.000000 I-6.790114 J-0.000000
G03 X44.594910 Y86.672942 Z-1.000000 I-5.221971 J-0.326371
G03 X44.514820 Y87.036732 Z-1.000000 I-2.172030 J-0.287471
G03 X44.413009 Y87.257233 Z-1.000000 I-0.889291 J-0.276853
G03 X44.246361 Y87.455728 Z-1.000000 I-0.692549 J-0.412232
G03 X44.016134 Y87.598984 Z-1.000000 I-0.575650 J-0.668501
G03 X43.749666 Y87.680051 Z-1.000000 I-0.456154 J-1.020909
G03 X43.343650 Y87.714740 Z-1.000000 I-0.406016 J-2.358745
G03 X42.929611 Y87.666540 Z-1.000000 I-0.000000 J-1.802410
G03 X42.456193 Y87.505278 Z-1.000000 I0.596044 J-2.525335
G03 X42.008510 Y87.270191 Z-1.000000 I1.776134 J-3.926165
G03 X41.568737 Y86.970599 Z-1.000000 I2.462733 J-4.087630
G01 X41.568737 Y82.373464 Z-1.000000
G01 X40.532454 Y82.373464 Z-1.000000
G01 X40.532454 Y88.530537 Z-1.000000
G01 X41.568737 Y88.530537 Z-1.000000
G01 X41.568737 Y87.847032 Z-1.000000
G02 X42.075811 Y88.213681 Z-1.000000 I3.008052 J-3.626148
G02 X42.571950 Y88.475417 Z-1.000000 I2.009821 J-3.208667
G02 X43.101794 Y88.645320 Z-1.000000 I1.103294 J-2.529511
G02 X43.635795 Y88.701414 Z-1.000000 I0.534001 J-2.513715
G02 X44.553997 Y88.526670 Z-1.000000 I-0.000000 J-2.499741
G02 X45.157150 Y88.100592 Z-1.000000 I-0.573160 J-1.451310
G02 X45.522388 Y87.440421 Z-1.000000 I-1.354413 J-1.180444
G02 X45.680802 Y86.369773 Z-1.000000 I-3.538792 J-1.070647
G01 X45.680802 Y82.373464 Z-1.000000
G01 X45.680802 Y82.373464 Z-1.000000
G00 Z5.000000

(End cutting path id: path4838)


(Start cutting path id: path4836)
(Change tool to Cone cutter)

G00 Z5.000000
G00 X38.537052 Y89.561312

G01 Z-1.000000 F100.0(Penetrate)
G01 X37.368477 Y89.561312 Z-1.000000 F400.000000
G01 X37.368477 Y90.636180 Z-1.000000
G01 X38.537052 Y90.636180 Z-1.000000
G01 X38.537052 Y89.561312 Z-1.000000
G01 X38.537052 Y89.561312 Z-1.000000
G00 Z5.000000

(End cutting path id: path4836)


(Start cutting path id: path4836)
(Change tool to Cone cutter)

G00 Z5.000000
G00 X38.470908 Y82.373464

G01 Z-1.000000 F100.0(Penetrate)
G01 X37.434622 Y82.373464 Z-1.000000 F400.000000
G01 X37.434622 Y88.530537 Z-1.000000
G01 X38.470908 Y88.530537 Z-1.000000
G01 X38.470908 Y82.373464 Z-1.000000
G01 X38.470908 Y82.373464 Z-1.000000
G00 Z5.000000

(End cutting path id: path4836)


(Start cutting path id: path4834)
(Change tool to Cone cutter)

G00 Z5.000000
G00 X35.769954 Y82.373464

G01 Z-1.000000 F100.0(Penetrate)
G01 X30.362531 Y82.373464 Z-1.000000 F400.000000
G01 X30.362531 Y90.581060 Z-1.000000
G01 X35.769954 Y90.581060 Z-1.000000
G01 X35.769954 Y89.610921 Z-1.000000
G01 X31.453938 Y89.610921 Z-1.000000
G01 X31.453938 Y87.361962 Z-1.000000
G01 X35.769954 Y87.361962 Z-1.000000
G01 X35.769954 Y86.391824 Z-1.000000
G01 X31.453938 Y86.391824 Z-1.000000
G01 X31.453938 Y83.343603 Z-1.000000
G01 X35.769954 Y83.343603 Z-1.000000
G01 X35.769954 Y82.373464 Z-1.000000
G01 X35.769954 Y82.373464 Z-1.000000
G00 Z5.000000

(End cutting path id: path4834)


(Start cutting path id: rect4021)
(Change tool to Cone cutter)

G00 Z5.000000
G00 X13.263523 Y70.331598

G01 Z-1.000000 F100.0(Penetrate)
G01 X64.921463 Y70.331598 Z-1.000000 F400.000000
G01 X64.921463 Y35.602105 Z-1.000000
G01 X13.263523 Y35.602105 Z-1.000000
G01 X13.263523 Y70.331598 Z-1.000000
G00 Z5.000000

(End cutting path id: rect4021)


(Footer)
M5
G00 X0.0000 Y0.0000
M2
(Using default footer. To add your own footer create file "footer" in the output dir.)
(end)
%